!!!OTL: WARUM BIST DU DENN SO TRAURIG
!!!ARE: Europa, Mitteleuropa, Deutschland
!!!SCT: E0782
!!!YEM: Copyright 1995, estate of Helmut Schaffrath.
**kern
*ICvox
*Ivox
*M4/4
*k[b-]
*F:
=1
{8cc
8dd
8cc
8b-
4a
4a
=2
8cc
8b-
8a
8b-
4cc
8ff
8dd}
=3
{8cc
8dd
8cc
8b-
4a
4a
=4
8cc
8b-
8a
8b-
2cc}
=5
{4.a
8cc
8cc
8b-
8dd
8b-
=6
4.g
8b-
8a
8cc
8ff
8cc}
=7
{4.a
8cc
8dd
8cc
8b-
8a
=8
8g
8f
8g
8a
2f}
==
!!!AGN: Abschieds - Lied, Liebe
!!!ONB: ESAC (Essen Associative Code) Database: ERK2
!!!AMT: simple quadruple
!!!AIN: vox
!!!EED: Helmut Schaffrath
!!!EEV: 1.0
*-
